X: 6806
T: Charles Sutherland
R: reel
M: 4/4
K: Dmajor
|:d2- df ecdB|A2 Fd BAGF|B2 GB A2 fd|efed cABc|
dcdf ecdB|A2 Fd BAGF|B2 GB A2 af|gecA d4:|
|:f2 df afdc|B2 gB A2 fA|G2 dG F2 fd|efed ceAg|
f2 df afdc|Bdgd AdfA|B2 GB Afaf|gecA d4:|

